racetime/static/racetime/image/gold_star.svg

<?xml version="1.0" encoding="UTF-8" standalone="no"?>
<!-- Created with Inkscape (http://www.inkscape.org/) -->

<svg
   xmlns:dc="http://purl.org/dc/elements/1.1/"
   xmlns:cc="http://creativecommons.org/ns#"
   xmlns:rdf="http://www.w3.org/1999/02/22-rdf-syntax-ns#"
   xmlns:svg="http://www.w3.org/2000/svg"
   xmlns="http://www.w3.org/2000/svg"
   xmlns:xlink="http://www.w3.org/1999/xlink"
   xmlns:sodipodi="http://sodipodi.sourceforge.net/DTD/sodipodi-0.dtd"
   xmlns:inkscape="http://www.inkscape.org/namespaces/inkscape"
   width="16"
   height="16"
   viewBox="0 0 16.00001 16.00001"
   version="1.1"
   id="svg8"
   inkscape:version="0.92.4 (5da689c313, 2019-01-14)"
   sodipodi:docname="gold_star.svg"
   inkscape:export-filename="E:\Personal\repo\racetime.gg\app\racetime\static\racetime\image\star.png"
   inkscape:export-xdpi="768"
   inkscape:export-ydpi="768">
  <defs
     id="defs2">
    <linearGradient
       inkscape:collect="always"
       id="linearGradient834">
      <stop
         style="stop-color:#cca32a;stop-opacity:1"
         offset="0"
         id="stop830" />
      <stop
         style="stop-color:#ffea99;stop-opacity:1"
         offset="1"
         id="stop832" />
    </linearGradient>
    <linearGradient
       inkscape:collect="always"
       xlink:href="#linearGradient834"
       id="linearGradient836"
       x1="0"
       y1="16"
       x2="16"
       y2="0"
       gradientUnits="userSpaceOnUse" />
  </defs>
  <sodipodi:namedview
     id="base"
     pagecolor="#ffffff"
     bordercolor="#666666"
     borderopacity="1.0"
     inkscape:pageopacity="0.0"
     inkscape:pageshadow="2"
     inkscape:zoom="32"
     inkscape:cx="10.943092"
     inkscape:cy="8.7290087"
     inkscape:document-units="px"
     inkscape:current-layer="layer1"
     showgrid="false"
     inkscape:window-width="1920"
     inkscape:window-height="1057"
     inkscape:window-x="1912"
     inkscape:window-y="-8"
     inkscape:window-maximized="1" />
  <metadata
     id="metadata5">
    <rdf:RDF>
      <cc:Work
         rdf:about="">
        <dc:format>image/svg+xml</dc:format>
        <dc:type
           rdf:resource="http://purl.org/dc/dcmitype/StillImage" />
        <dc:title></dc:title>
      </cc:Work>
    </rdf:RDF>
  </metadata>
  <g
     inkscape:label="Layer 1"
     inkscape:groupmode="layer"
     id="layer1"
     transform="translate(0,-2)">
    <path
       style="fill:url(#linearGradient836);fill-opacity:1;stroke:none;stroke-width:17.18487358;stroke-miterlimit:4;stroke-dasharray:none;stroke-opacity:1"
       mask="none"
       d="M 8 0 L 5.5273438 5.2675781 L 0 6.1113281 L 4 10.210938 L 3.0566406 16 L 8 13.267578 L 12.943359 16 L 12 10.210938 L 16 6.1113281 L 10.472656 5.2675781 L 8 0 z M 8 5.5273438 L 8.9277344 7.5019531 L 11 7.8183594 L 9.5 9.3574219 L 9.8535156 11.527344 L 8 10.501953 L 6.1464844 11.527344 L 6.5 9.3574219 L 5 7.8183594 L 7.0722656 7.5019531 L 8 5.5273438 z "
       transform="translate(0,2)"
       id="path823" />
  </g>
</svg>

<svg xmlns="http://www.w3.org/2000/svg" xmlns:xlink="http://www.w3.org/1999/xlink" width="16" height="16"><defs><linearGradient id="a"><stop offset="0" stop-color="#cca32a"/><stop offset="1" stop-color="#ffea99"/></linearGradient><linearGradient xlink:href="#a" id="b" x1="0" y1="16" x2="16" y2="0" gradientUnits="userSpaceOnUse"/></defs><path d="M8 0L5.527 5.268 0 6.11l4 4.1L3.057 16 8 13.268 12.943 16 12 10.21l4-4.099-5.527-.843L8 0zm0 5.527l.928 1.975L11 7.818l-1.5 1.54.354 2.17L8 10.501l-1.854 1.025.354-2.17L5 7.818l2.072-.316L8 5.527z" fill="url(#b)"/></svg>
